X:64
T:Hark Hark The Joy Inspiring Horn. WCl.64
M:6/8
L:1/8
Q:3/8=80
S:William Clarke MS,Lincoln,1770.
R:.Air
O:Lincoln
A:England
Z:vmp.Chris Partington
K:G
G|(G>A)GG2B|(B>c)BB2d|(d>e)d (gB)d|(dc)B {B}A2A|!
(B>^c)d (d>e)c|(d2 (3d/e/f/ e2) {ef}g|(f>e)d d>e^c|”$”dDDD2d|!
d>ed (bg)d|(c>d)c (af)c|B>cB (gB)d|(dc)B{B}A2A|!
(B>A)B (cB)A|(Bb/g/f/g/)”Pa”g2e|(d>B)d (cB)A|”Sy”GGGG2|]

